**kern
*staff1
*tb8
=1-
*clefG2
*met(c)
*M4/4
4ee\
.
4dd\
.
4cc\
.
4b\
.
=2
4cc\
.
8b\
8a/
4g/
.
4a/
.
=3
4cc\
.
4b\
.
4dd\
.
4cc\
.
=4
!!linebreak:original
(2ee\
.
.
.
4dd\)
.
4r
.
=5
4ff\
.
4ee\
.
4dd\
.
4cc\
.
=6
(4cc\
.
2b\)
.
.
.
8a/
8g/
=7:|!
!!linebreak:original
=
8g/
8f#/
8g/
8a/
4.b\
.
.
8a/
=8
4g/
.
4r
.
4r
.
8b\
8cc\
=9
(2dd\
.
.
.
4b\)
.
8cc\L
8a\J
=10
!!linebreak:original
1g/
.
.
.
.
.
.
.
=11
(4.ee\
.
.
8cc\)
4g/
.
4r
.
=12
(4.ee-\
.
.
8cc\)
2g/
.
.
.
=13
4ee-\
.
8dd\L
8cc\J
(4b\
.
8cc\)
8dd\
=14
!!linebreak:original
4cc\
.
4r
.
8cc\
8cc\
8b-\
8a-/
=15
4a-/
.
4g/
.
4.cc\
.
.
8a-/
=16
4a-/
.
4g/
.
4g/
.
4g/
.
=17
!!linebreak:original
1cc'/
.
.
.
.
.
.
.
=18
8cc\L
8b\J
8ff\L
8ee\J
8ee\L
8dd\J
8cc\L
8b\J
=19
4cc\
.
4r
.
4r
.
8cc/L
8f/J
=20
!!linebreak:original
(2e/
.
.
.
4d/
.
8f/L
8e/J)
=21
4c/
.
4r
.
2r
.
.
.
=22
1r
.
.
.
.
.
.
.
==
*-
